X:1
T:Utretcht, SM
T:Utretcht, SM
T:Berthold Tours, 1875
T:Public Domain Courtesy of the Cyber Hymnal™
C:Berthold Tours, 1875
Z:Public Domain
Z:Courtesy of the Cyber Hymnal™
%%score ( 1 2 ) ( 3 4 )
L:1/8
Q:1/4=115
M:4/4
K:D
V:1 treble 
V:2 treble 
V:3 bass 
V:4 bass 
V:1
 [DA]2 | [DB]2 [Dd]2 [Dc]2 [EB]2 | [FA]6 [CA]2 | [FB]2 [=Fd]2 [Ec]2 [EB]2 | [EA]6 A2 | %5
 [Ce]2 [Dd]2 [Gc]2 [FB]2 | [Gc]2 [Gd]2 [Ge]2 [Fd]2 | (FG) [EA]2 [DB]2 [Gc]2 | [Fd]6 |] %9
V:2
 x2 | x8 | x8 | x8 | x6 A2 | x8 | x8 | D2 x6 | x6 |] %9
V:3
 [D,F,]2 | [B,,F,]2 [G,,B,]2 [B,,A,]2 [C,G,]2 | [D,F,]6 [F,A,]2 | [D,A,]2 [B,,A,]2 [E,A,]2 (^G,D) | %4
 [A,C]6 A,2 | [G,A,]2 [F,A,]2 [E,A,]2 [D,A,]2 | [E,A,]2 [D,B,]2 [A,,C]2 [B,,D]2 | %7
 [B,D]2 ([A,C][G,B,]) [F,A,]2 [E,A,]2 | [D,A,]6 |] %9
V:4
 x2 | x8 | x8 | x6 E,2 | x6 A,2 | x8 | x8 | x8 | x6 |] %9

